X:2242
T:The Prodigal 
T:Cart going to Douglas with Buttermilk and spilt
C:Traditional
O:Isle of Man
Z:Clague collection
B:Kiaull Vannin #242 
M:4/4 
L:1/4 
Q:140 
K:G 
e/d/|c B e A|B c d B/A/|G E A A|A3 A/B/| 
c d e/f/ g/e/|f d e d/c/|d d f d|e3 A/B/| 
c d e/f/ g/e/|f d e d/c/|d d e/f/ g/e/|a3 e/f/| 
g g a/g/ e|g g a e/d/|c/d/ e d/c/ A|A3|| 

